X: 30444
T: Old Walls Of Liscarroll, The
R: jig
M: 6/8
K: Dmixolydian
A3 DAD|AGE ABc|AGE cGE|GEA DEG|
A3 DAD|AGE ABc|AGE cGE|D3 DEG:|
Adc ABc|ded dcA|GEE cGE|GEA DEG|
1 Adc ABc|def dcA|GEE cGE|DED DEG:|
2 A3 DAD|AGE ABc|AGE cGE|D3 DEG||

